img/image/design/logo.svg

<svg xmlns="http://www.w3.org/2000/svg" fill="none" viewBox="0 0.86 113.75 46.27">
<g clip-path="url(#clip0_404_1634)">
<path fill-rule="evenodd" clip-rule="evenodd" d="M6.10352e-05 0.864449H24.2465C30.2173 0.864449 35.4323 3.88978 38.0558 8.30338C36.1182 11.1658 35.0029 14.5198 35.0029 18.1057C35.0029 20.6181 35.5512 23.0161 36.5452 25.2116C33.6818 28.4714 29.2271 30.576 24.2465 30.576H18.9475L6.10352e-05 13.223V0.864258V0.864449ZM10.186 9.61299H22.0398C26.2375 9.61299 29.672 12.1844 29.672 15.3276V16.1134C29.672 19.2564 26.2375 21.8278 22.0398 21.8278H10.186V9.61299Z" fill="#B2B3B3"/>
<path fill-rule="evenodd" clip-rule="evenodd" d="M14.8084 0.864258H24.2465C30.2173 0.864258 35.4323 3.88959 38.0558 8.30319C36.1182 11.1657 35.0029 14.5196 35.0029 18.1055C35.0029 18.2877 35.0063 18.4691 35.0121 18.6499L29.3352 13.6524C28.7144 12.1476 27.2815 10.9033 25.4242 10.2095L14.8084 0.864258V0.864258Z" fill="white"/>
<path fill-rule="evenodd" clip-rule="evenodd" d="M15.3507 35.9853H6.10352e-05V22.1968L15.3507 35.9853Z" fill="white"/>
<path fill-rule="evenodd" clip-rule="evenodd" d="M6.10352e-05 0.864449H0.309141L10.2736 9.61299H10.186V21.8278H22.0398C22.7069 21.8278 23.355 21.7625 23.9729 21.6406L32.0285 28.7133C29.7343 29.8971 27.0753 30.576 24.2467 30.576H20.0909L0.000275973 13.1554V0.864258L6.10352e-05 0.864449Z" fill="#E31E24"/>
<path fill-rule="evenodd" clip-rule="evenodd" d="M40.1142 35.9849H24.7634L0 13.1554V0.864258H0.308865L24.7634 22.1964L40.1142 35.9849Z" fill="white"/>
<path fill-rule="evenodd" clip-rule="evenodd" d="M59.9163 14.5801H64.9248H73.4638C73.2115 15.772 73.0786 17.0002 73.0786 18.2555C73.0786 21.7057 74.0762 24.9538 75.8333 27.7971V40.4533L65.8701 36.0747V33.1401C63.0342 34.5854 59.7491 35.4119 56.2471 35.4119C45.5329 35.4119 36.847 27.6781 36.847 18.138C36.847 8.5981 45.5329 0.864258 56.2471 0.864258H56.2714L69.9951 0.916313L75.3303 9.57644C68.9383 9.57644 62.4867 9.59672 56.0502 9.59672V9.63557C50.8659 9.72897 46.6957 13.4997 46.6957 18.1382C46.6957 22.8354 50.9721 26.6431 56.2473 26.6431C60.9321 26.6431 64.8285 23.6404 65.6424 19.6784L59.9165 14.5802L59.9163 14.5801Z" fill="#B2B3B3"/>
<path fill-rule="evenodd" clip-rule="evenodd" d="M66.0291 31.8835L66.1942 20.1498L65.5319 19.5807C64.9929 22.6234 61.9285 25.2752 58.7797 26.341L66.0291 31.8835ZM54.4973 9.78586L46.7505 3.03418C44.0537 4.3769 41.3332 6.94292 39.6266 9.22416L47.0561 15.8155C48.2447 13.1 51.1978 10.3145 54.4973 9.78586Z" fill="white"/>
<path d="M0.666992 46.951V41.3005H3.024C3.91706 41.3005 4.49825 41.3281 4.76951 41.3847C5.18627 41.4701 5.53554 41.6544 5.81668 41.9386C6.09782 42.2226 6.2386 42.5897 6.2386 43.0394C6.2386 43.3866 6.15736 43.6773 5.99637 43.914C5.83366 44.1507 5.62861 44.3362 5.37971 44.4719C5.1306 44.606 4.87633 44.6954 4.61883 44.7389C4.26806 44.7928 3.76166 44.8204 3.09708 44.8204H2.14146V46.9512H0.666992V46.951ZM2.14146 42.2553V43.8652H2.94297C3.52093 43.8652 3.90546 43.835 4.1004 43.7758C4.29535 43.7165 4.44774 43.6246 4.55801 43.4968C4.66827 43.3707 4.72415 43.2247 4.72415 43.0562C4.72415 42.8496 4.64613 42.68 4.49202 42.5458C4.33598 42.4117 4.14124 42.3275 3.90223 42.2934C3.72792 42.2683 3.37693 42.2551 2.84839 42.2551H2.14189L2.14146 42.2553ZM7.00958 44.1599C7.00958 43.5839 7.12157 43.0999 7.34338 42.7077C7.5076 42.4197 7.73478 42.1606 8.0213 41.9317C8.30781 41.7028 8.62119 41.533 8.96186 41.4213C9.41603 41.2728 9.9394 41.1978 10.5326 41.1978C11.6069 41.1978 12.4643 41.4569 13.1099 41.9738C13.7539 42.4921 14.0759 43.2116 14.0759 44.1335C14.0759 45.0477 13.7556 45.7633 13.1168 46.2789C12.478 46.7956 11.6221 47.0536 10.553 47.0536C9.47019 47.0536 8.60786 46.7971 7.96885 46.2827C7.33006 45.7698 7.0098 45.0621 7.0098 44.1599H7.00958ZM8.52468 44.1217C8.52468 44.7622 8.71597 45.2475 9.09749 45.579C9.47879 45.9091 9.96326 46.0749 10.5496 46.0749C11.1377 46.0749 11.6189 45.9105 11.9968 45.583C12.3729 45.2542 12.5612 44.7624 12.5612 44.106C12.5612 43.4574 12.3781 42.9734 12.0105 42.6551C11.6445 42.3355 11.1581 42.1763 10.5496 42.1763C9.94305 42.1763 9.45321 42.338 9.08223 42.6603C8.71125 42.9839 8.52489 43.4706 8.52489 44.1215L8.52468 44.1217ZM19.4405 46.951V44.5913H19.1424C18.6764 44.5913 18.3493 44.6453 18.1578 44.753C17.9665 44.8596 17.641 45.1817 17.1785 45.7172L16.1247 46.9508H14.3673L15.2554 45.8487C15.6045 45.4106 15.8841 45.1042 16.0909 44.9293C16.2994 44.753 16.5601 44.5951 16.8722 44.4571C16.196 44.3743 15.7081 44.1913 15.4081 43.9073C15.108 43.6231 14.9571 43.2838 14.9571 42.8878C14.9571 42.5432 15.0689 42.2381 15.2926 41.9723C15.5164 41.7066 15.8111 41.5277 16.1771 41.437C16.5431 41.3463 17.0904 41.3001 17.8192 41.3001H20.9152V46.9506H19.4407L19.4405 46.951ZM19.4405 42.2553H18.2934C17.7103 42.2553 17.3274 42.2658 17.1443 42.2856C16.9614 42.3066 16.8021 42.3765 16.67 42.4947C16.5378 42.613 16.4716 42.7671 16.4716 42.9577C16.4716 43.1563 16.536 43.3142 16.6629 43.4313C16.7901 43.5483 16.9528 43.6206 17.1493 43.6495C17.3457 43.6771 17.7474 43.6916 18.3523 43.6916H19.4401V42.2553H19.4405ZM22.9212 41.3005H28.0199V46.951H26.5459V42.2553H24.36V44.6677C24.36 45.3582 24.3295 45.8408 24.2701 46.1132C24.2108 46.3866 24.0668 46.6012 23.8362 46.7537C23.606 46.9064 23.2466 46.9826 22.7568 46.9826C22.584 46.9826 22.2723 46.9696 21.8181 46.9445V46.0594L22.1468 46.0632C22.4535 46.0632 22.662 46.0316 22.7669 45.9673C22.8737 45.9028 22.9261 45.7449 22.9261 45.4938L22.921 44.5232V41.3007L22.9212 41.3005Z" fill="#B2B3B3"/>
<path d="M32.3737 41.3003H37.3046V42.2551H33.8478V46.9508H32.3737V41.3003ZM38.0655 46.9508V41.3003H40.4225C41.3156 41.3003 41.8967 41.3278 42.1678 41.3845C42.5848 41.4699 42.9338 41.6542 43.215 41.9384C43.4963 42.2224 43.6369 42.5894 43.6369 43.0392C43.6369 43.3863 43.5556 43.677 43.3946 43.9138C43.2319 44.1505 43.0269 44.336 42.7778 44.4716C42.5289 44.6058 42.2744 44.6952 42.0169 44.7386C41.6661 44.7926 41.1597 44.8201 40.4951 44.8201H39.5395V46.951H38.0653L38.0655 46.9508ZM39.5397 42.2551V43.865H40.3412C40.919 43.865 41.3037 43.8347 41.4987 43.7756C41.6936 43.7163 41.8462 43.6244 41.9563 43.4966C42.0665 43.3704 42.1224 43.2244 42.1224 43.056C42.1224 42.8493 42.0446 42.6798 41.8903 42.5456C41.7345 42.4114 41.5395 42.3272 41.3005 42.2932C41.1262 42.2681 40.7752 42.2549 40.2467 42.2549H39.5402L39.5397 42.2551ZM43.9655 41.3003H45.6212L47.3155 44.2255L48.7659 41.3003H50.2995L47.8374 45.5949C47.5696 46.0605 47.2968 46.4142 47.0189 46.6576C46.741 46.901 46.3833 47.022 45.9429 47.022C45.5092 47.022 45.1702 46.9996 44.9263 46.9561V46.1064C45.1348 46.1169 45.3228 46.1223 45.4905 46.1223C45.8295 46.1223 46.0734 46.0735 46.2209 45.9776C46.3668 45.8804 46.5091 45.6712 46.6428 45.3516L43.9655 41.3005V41.3003ZM51.0572 41.3003H56.8424V46.9508H55.3682V42.2551H52.5316V46.9508H51.0572V41.3003ZM58.3657 41.3003H64.1509V46.9508H62.6767V42.2551H59.8399V46.9508H58.3657V41.3003Z" fill="white"/>
<path fill-rule="evenodd" clip-rule="evenodd" d="M94.3116 0.963379C103.357 0.963379 110.961 6.45846 113.144 13.9039H102.322C100.666 11.5128 97.6982 9.91899 94.3118 9.91899C89.1181 9.91899 84.9077 13.6679 84.9077 18.2924C84.9077 22.9169 89.1181 26.6659 94.3118 26.6659C98.0793 26.6659 101.328 24.6931 102.83 21.8448H113.364C111.523 29.7113 103.693 35.6215 94.3118 35.6215C83.5632 35.6215 74.8497 27.8629 74.8497 18.2924C74.8497 8.72191 83.5632 0.963379 94.3118 0.963379H94.3116Z" fill="white"/>
<path fill-rule="evenodd" clip-rule="evenodd" d="M93.5796 35.6079C83.6471 35.2814 75.6164 28.3284 74.9006 19.5674L93.5796 35.6079Z" fill="#B2B3B3"/>
<path fill-rule="evenodd" clip-rule="evenodd" d="M92.6736 10.0456L84.659 3.2417C81.7042 4.69618 79.0751 7.11656 77.6056 9.39781L85.2176 16.1518C86.0503 13.2049 89.0674 10.5742 92.6736 10.0458V10.0456Z" fill="#B2B3B3"/>
<path fill-rule="evenodd" clip-rule="evenodd" d="M95.9198 26.5442L103.859 33.3967C106.615 32.0645 109.361 29.7111 110.996 27.218L104.952 21.855H102.819C101.603 24.24 98.9654 26.0977 95.9196 26.5442H95.9198Z" fill="#B2B3B3"/>
<path d="M68.4389 41.3522H69.8197V43.7722C70.126 43.7458 70.3338 43.6809 70.4419 43.5739C70.5498 43.4681 70.7181 43.1732 70.9434 42.6892C71.2275 42.0743 71.5149 41.6907 71.8021 41.5413C72.0877 41.3918 72.5464 41.3164 73.1813 41.3164C73.2129 41.3164 73.2798 41.3151 73.3812 41.3124V42.1613L73.186 42.1573C72.9034 42.1573 72.6973 42.1864 72.567 42.2446C72.437 42.3028 72.3321 42.3914 72.2511 42.5104C72.1702 42.6294 72.0512 42.874 71.8941 43.2443C71.8098 43.4413 71.7195 43.6055 71.6211 43.7375C71.5244 43.8698 71.3513 43.994 71.1037 44.1103C71.41 44.1817 71.6623 44.3285 71.8622 44.548C72.0623 44.7675 72.2812 45.077 72.5193 45.4777L73.4476 47.0329H71.8287L71.0113 45.5704C70.9986 45.5491 70.9715 45.5095 70.932 45.45C70.9161 45.4301 70.8589 45.3401 70.7607 45.1828C70.5862 44.9025 70.4432 44.7279 70.3321 44.6579C70.2195 44.5878 70.0497 44.552 69.8195 44.5496V47.0329H68.4387V41.352L68.4389 41.3522ZM73.9461 44.2271C73.9461 43.648 74.051 43.1613 74.2588 42.7672C74.4127 42.4777 74.6255 42.2172 74.8937 41.987C75.162 41.7569 75.4554 41.5862 75.7745 41.4739C76.1999 41.3244 76.6904 41.249 77.2458 41.249C78.2519 41.249 79.0549 41.5095 79.6597 42.0293C80.2629 42.5502 80.5644 43.2736 80.5644 44.2007C80.5644 45.1197 80.2644 45.8391 79.6662 46.3575C79.0678 46.8773 78.2665 47.1364 77.2649 47.1364C76.2508 47.1364 75.4429 46.8785 74.8447 46.3615C74.2463 45.8458 73.9465 45.1344 73.9465 44.2273L73.9461 44.2271ZM75.3649 44.1888C75.3649 44.8328 75.5441 45.3208 75.9014 45.654C76.2584 45.9859 76.7123 46.1526 77.2615 46.1526C77.8121 46.1526 78.2629 45.9872 78.6169 45.658C78.9692 45.3275 79.1454 44.8328 79.1454 44.1731C79.1454 43.5211 78.9741 43.0346 78.6296 42.7146C78.2867 42.3933 77.8313 42.2333 77.2615 42.2333C76.6932 42.2333 76.2347 42.396 75.8869 42.72C75.5394 43.0453 75.3649 43.5345 75.3649 44.1892V44.1888ZM81.6385 47.0333V41.3524H83.0192V43.5898H85.7044V41.3524H87.0852V47.0333H85.7044V44.5499H83.0192V47.0333H81.6385ZM92.8765 44.9386L94.2095 45.2799C94.0049 45.9053 93.6636 46.3696 93.1875 46.6737C92.7112 46.9764 92.1083 47.1286 91.3766 47.1286C90.4705 47.1286 89.7261 46.8706 89.1419 46.355C88.5595 45.8393 88.2676 45.1344 88.2676 44.2393C88.2676 43.2939 88.5612 42.5584 89.1469 42.0348C89.7326 41.5112 90.5038 41.2494 91.4592 41.2494C92.294 41.2494 92.9715 41.4557 93.4921 41.867C93.8033 42.1102 94.0348 42.4595 94.1904 42.9156L92.8288 43.1852C92.7477 42.8916 92.5794 42.6589 92.3241 42.4884C92.067 42.3177 91.756 42.2331 91.3908 42.2331C90.8847 42.2331 90.4735 42.3839 90.1592 42.6867C89.8433 42.9881 89.6864 43.4775 89.6864 44.1546C89.6864 44.8713 89.8418 45.383 90.1513 45.6873C90.4623 45.9928 90.8655 46.1449 91.3622 46.1449C91.7289 46.1449 92.0447 46.0484 92.3082 45.854C92.5717 45.6596 92.7621 45.3555 92.8765 44.9388V44.9386ZM101.298 47.0333H99.8104L99.2216 45.7399H96.487L95.9204 47.0333H94.4603L97.1075 41.3524H98.5661L101.298 47.0333ZM98.7741 44.78L97.8267 42.6773L96.9061 44.78H98.7741ZM102.639 41.3524H107.414V47.0333H106.033V42.3123H103.986V44.7375C103.986 45.4316 103.958 45.9172 103.902 46.1908C103.846 46.4658 103.711 46.6815 103.496 46.8348C103.28 46.9881 102.944 47.0649 102.485 47.0649C102.323 47.0649 102.031 47.0517 101.605 47.0266V46.1367L101.913 46.1407C102.2 46.1407 102.396 46.1089 102.494 46.0442C102.594 45.9794 102.643 45.8207 102.643 45.5683L102.639 44.5924V41.3526L102.639 41.3524ZM110.363 47.0333V42.3123H108.344V41.3522H113.753V42.3123H111.743V47.0333H110.363H110.363Z" fill="#B2B3B3"/>
</g>
<defs>
<clipPath id="clip0_404_1634">
<rect width="113.753" height="46.272" fill="white" transform="translate(0 0.864258)"/>
</clipPath>
</defs>
</svg>

<svg xmlns="http://www.w3.org/2000/svg" fill="none" viewBox="0 0.86 113.75 46.27"><g clip-path="url(#a)"><path fill-rule="evenodd" clip-rule="evenodd" d="M0 .864h24.247c5.97 0 11.185 3.026 13.809 7.44-1.938 2.862-3.053 6.216-3.053 9.802 0 2.512.548 4.91 1.542 7.106-2.863 3.26-7.318 5.364-12.299 5.364h-5.298L0 13.223V.864Zm10.186 8.749H22.04c4.198 0 7.632 2.571 7.632 5.715v.785c0 3.143-3.434 5.715-7.632 5.715H10.186V9.613Z" fill="#B2B3B3"/><path fill-rule="evenodd" clip-rule="evenodd" d="M14.808.864h9.439c5.97 0 11.185 3.026 13.809 7.44-1.938 2.862-3.053 6.216-3.053 9.801 0 .183.003.364.01.545l-5.678-4.998c-.62-1.504-2.053-2.749-3.91-3.442L14.807.864ZM15.35 35.985H0V22.197l15.35 13.788Z" fill="#fff"/><path fill-rule="evenodd" clip-rule="evenodd" d="M0 .864h.31l9.964 8.749h-.088v12.215H22.04c.667 0 1.315-.066 1.933-.187l8.056 7.072a16.96 16.96 0 0 1-7.782 1.863H20.09L0 13.156V.863Z" fill="#E31E24"/><path fill-rule="evenodd" clip-rule="evenodd" d="M40.114 35.985h-15.35L0 13.155V.865h.309l24.454 21.331 15.351 13.789Z" fill="#fff"/><path fill-rule="evenodd" clip-rule="evenodd" d="M59.916 14.58h13.548a17.724 17.724 0 0 0-.385 3.676c0 3.45.997 6.698 2.754 9.541v12.656l-9.963-4.378V33.14c-2.836 1.445-6.12 2.272-9.623 2.272-10.714 0-19.4-7.734-19.4-17.274 0-9.54 8.686-17.274 19.4-17.274h.024l13.724.052 5.335 8.66c-6.392 0-12.843.02-19.28.02v.04c-5.184.093-9.354 3.864-9.354 8.502 0 4.697 4.276 8.505 9.551 8.505 4.685 0 8.582-3.003 9.395-6.965l-5.725-5.098Z" fill="#B2B3B3"/><path fill-rule="evenodd" clip-rule="evenodd" d="m66.03 31.884.164-11.734-.662-.57c-.54 3.043-3.603 5.695-6.752 6.761l7.25 5.543ZM54.496 9.786l-7.746-6.752c-2.697 1.343-5.418 3.909-7.124 6.19l7.43 6.591c1.188-2.715 4.14-5.5 7.44-6.03Z" fill="#fff"/><path d="M.667 46.951v-5.65h2.357c.893 0 1.474.027 1.746.084a2 2 0 0 1 1.047.554c.28.284.422.65.422 1.1 0 .348-.082.638-.243.875a1.762 1.762 0 0 1-.616.558c-.25.134-.504.223-.761.267-.35.054-.857.081-1.522.081h-.956v2.131H.667Zm1.474-4.696v1.61h.802c.578 0 .962-.03 1.157-.09a.95.95 0 0 0 .458-.278.648.648 0 0 0 .166-.44.647.647 0 0 0-.232-.511 1.123 1.123 0 0 0-.59-.253c-.174-.025-.525-.038-1.054-.038h-.706ZM7.01 44.16c0-.576.112-1.06.333-1.452.165-.288.392-.547.678-.776.287-.23.6-.399.94-.51.455-.15.978-.224 1.572-.224 1.074 0 1.931.259 2.577.776.644.518.966 1.238.966 2.16 0 .914-.32 1.63-.96 2.145-.638.517-1.494.775-2.563.775-1.083 0-1.945-.257-2.584-.771-.639-.513-.96-1.22-.96-2.123Zm1.515-.038c0 .64.191 1.126.572 1.457.382.33.866.496 1.453.496.588 0 1.069-.165 1.447-.492.376-.329.564-.82.564-1.477 0-.649-.183-1.133-.55-1.45-.366-.32-.853-.48-1.461-.48-.607 0-1.097.162-1.468.484-.37.324-.557.81-.557 1.462ZM19.44 46.95v-2.36h-.298c-.466 0-.793.054-.984.162-.192.107-.517.429-.98.964l-1.053 1.234h-1.758l.888-1.102c.35-.438.63-.745.836-.92.208-.176.47-.334.781-.472-.676-.083-1.164-.266-1.464-.55a1.356 1.356 0 0 1-.45-1.02c0-.344.11-.649.335-.915.223-.265.518-.444.884-.535.366-.09.913-.137 1.642-.137h3.096v5.65h-1.474v.001Zm0-4.696h-1.147c-.583 0-.966.01-1.149.03a.839.839 0 0 0-.474.21.592.592 0 0 0-.198.463c0 .198.064.356.19.473a.89.89 0 0 0 .487.219c.197.027.598.042 1.203.042h1.088v-1.437Zm3.481-.955h5.099v5.651h-1.474v-4.696H24.36v2.413c0 .69-.03 1.173-.09 1.445a.991.991 0 0 1-.434.64c-.23.153-.59.23-1.08.23-.172 0-.484-.013-.938-.038v-.886l.329.004c.306 0 .515-.031.62-.096.107-.064.16-.222.16-.473l-.006-.97V41.3Z" fill="#B2B3B3"/><path d="M32.374 41.3h4.93v.955h-3.456v4.696h-1.474V41.3Zm5.691 5.65V41.3h2.358c.893 0 1.474.028 1.745.085a2 2 0 0 1 1.047.553c.281.284.422.651.422 1.101 0 .347-.081.638-.242.875a1.759 1.759 0 0 1-.617.558 2.464 2.464 0 0 1-.761.267c-.35.054-.857.081-1.522.081h-.956v2.131h-1.474Zm1.475-4.695v1.61h.801c.578 0 .963-.03 1.158-.09a.95.95 0 0 0 .457-.278.648.648 0 0 0 .166-.441.647.647 0 0 0-.232-.51 1.12 1.12 0 0 0-.59-.253c-.174-.025-.525-.038-1.053-.038h-.707Zm4.425-.955h1.656l1.694 2.925 1.45-2.925H50.3l-2.463 4.295c-.267.465-.54.82-.818 1.063-.278.243-.636.364-1.076.364-.434 0-.773-.022-1.017-.066v-.85c.209.01.397.016.564.016.34 0 .583-.048.73-.144.147-.098.29-.307.423-.626L43.965 41.3Zm7.092 0h5.785v5.65h-1.474v-4.695h-2.836v4.696h-1.475V41.3Zm7.309 0h5.785v5.65h-1.474v-4.695H59.84v4.696h-1.474V41.3Z" fill="#fff"/><path fill-rule="evenodd" clip-rule="evenodd" d="M94.312.963c9.045 0 16.649 5.495 18.832 12.94h-10.822c-1.656-2.39-4.624-3.984-8.01-3.984-5.194 0-9.404 3.749-9.404 8.373 0 4.625 4.21 8.374 9.404 8.374 3.767 0 7.016-1.973 8.518-4.821h10.534c-1.841 7.866-9.671 13.776-19.052 13.776-10.749 0-19.462-7.758-19.462-17.329 0-9.57 8.713-17.329 19.462-17.329Z" fill="#fff"/><path fill-rule="evenodd" clip-rule="evenodd" d="M93.58 35.608c-9.933-.327-17.964-7.28-18.68-16.04l18.68 16.04ZM92.674 10.046l-8.015-6.804c-2.955 1.454-5.584 3.875-7.053 6.156l7.612 6.754c.832-2.947 3.85-5.578 7.456-6.106ZM95.92 26.544l7.939 6.853c2.756-1.332 5.502-3.686 7.137-6.179l-6.044-5.363h-2.133c-1.216 2.385-3.854 4.243-6.9 4.69Z" fill="#B2B3B3"/><path d="M68.439 41.352h1.38v2.42c.307-.026.515-.091.623-.198.108-.106.276-.4.501-.885.285-.615.572-.998.86-1.148.285-.15.743-.225 1.378-.225.032 0 .099 0 .2-.004v.85l-.195-.005c-.283 0-.489.03-.619.088a.742.742 0 0 0-.316.265c-.08.12-.2.364-.357.734a2.415 2.415 0 0 1-.273.493c-.097.133-.27.257-.517.373.306.072.558.218.758.438.2.22.42.529.657.93l.929 1.555h-1.62l-.817-1.463-.079-.12a5.908 5.908 0 0 1-.171-.267c-.175-.28-.318-.455-.429-.525-.112-.07-.282-.106-.512-.108v2.483h-1.381v-5.681Zm5.507 2.875c0-.579.105-1.066.313-1.46.154-.29.367-.55.635-.78.268-.23.561-.4.88-.513.426-.15.916-.225 1.472-.225 1.006 0 1.809.26 2.414.78.603.521.904 1.245.904 2.172 0 .919-.3 1.638-.898 2.157-.598.52-1.4.778-2.401.778-1.014 0-1.822-.258-2.42-.775-.599-.515-.898-1.227-.898-2.134Zm1.419-.038c0 .644.18 1.132.536 1.465.357.332.811.499 1.36.499.551 0 1.002-.166 1.356-.495.352-.33.528-.825.528-1.485 0-.652-.17-1.138-.515-1.458-.343-.322-.799-.482-1.368-.482-.569 0-1.027.163-1.375.487-.348.325-.522.815-.522 1.47v-.001Zm6.273 2.844v-5.68h1.381v2.237h2.685v-2.238h1.381v5.681h-1.38V44.55h-2.686v2.483h-1.38Zm11.238-2.094 1.334.34c-.205.626-.546 1.09-1.022 1.395-.477.302-1.08.455-1.811.455-.906 0-1.65-.258-2.235-.774-.582-.516-.874-1.22-.874-2.116 0-.945.293-1.68.879-2.204.586-.524 1.357-.786 2.312-.786.835 0 1.513.207 2.033.618.311.243.543.593.698 1.049l-1.361.27a1.197 1.197 0 0 0-.505-.698c-.257-.17-.568-.255-.933-.255-.506 0-.918.15-1.232.454-.316.301-.473.79-.473 1.468 0 .716.156 1.228.465 1.532.311.306.715.458 1.211.458.367 0 .683-.097.946-.291.264-.194.454-.498.568-.915Zm8.422 2.094H99.81l-.588-1.293h-2.735l-.567 1.293h-1.46l2.648-5.68h1.458l2.732 5.68Zm-2.524-2.253-.947-2.103-.92 2.103h1.867Zm3.865-3.428h4.775v5.681h-1.381v-4.72h-2.047v2.424c0 .695-.028 1.18-.084 1.454-.056.275-.191.49-.406.644-.216.153-.552.23-1.011.23-.162 0-.454-.013-.88-.038v-.89l.308.004c.287 0 .483-.032.581-.097.1-.065.149-.223.149-.476l-.004-.976v-3.24Zm7.724 5.681v-4.72h-2.019v-.96h5.409v.96h-2.01v4.72h-1.38Z" fill="#B2B3B3"/></g><defs><clipPath id="a"><path fill="#fff" transform="translate(0 .864)" d="M0 0h113.753v46.272H0z"/></clipPath></defs></svg>
